X: 30428
T: Old Torn Petticoat, The
R: reel
M: 4/4
K: Adorian
B|c2 Bc AGEF|G2 BG DGBd|c2 Bc AGEG|AcBG A3B|
c2 cB AGEF|G2 BG DGBd|c2 Bc AGEG|AcBG A3B||
c3d e~g3|ea{b}ag e=fed|cBcd e~g3|eaag a3B|
c3d e~g3|ea{b}ag e=fed|cdBc AGEG|AcBG A3B||

